X: 39169
T: Swift, The
R: jig
M: 6/8
K: Gmajor
d2d|d2B B2G|G2E c2c|D2D DEF|A2G d2d|
d2B B2G|G2E c2c|D2D DEF|G2z:|
|:B2A|A2A ^c2e|f2d d2A|B2G ED^C|E2D e2d|
d2d e2f|g2d B2G|EcB AGF|G2z:|
|:d2d|dcB BAG|e2C c2A|GFE DdF|A2G d2d|
dcB BAG|e2C c2A|GFE DdF|G2z:|
|:B2A|A^ce cAG|F2A d2^c|Bgf ea^c|e2d D2D|
cAF DEC|B,2d g2B,|Ced cAF|G2z:|
|:d2d|dba gfg|f2e e2d|dfa c'af|a2g d2d|
dba gfg|f2e e2d|dfa c'af|g2z:|
|:b2a|age ^cAG|FAd fd^c|BGF EA^C|E2D d2d|
cAf dec|BdB GDB,|C2e D2f|g2z:|

